X:193
T:Laington's
Z: id:dc-reel-176
M:C
L:1/8
K:A Major
cB|AFEF A3e|fece faaf|ecc2 acec|fcec B2cB|!
AFEF A3e|fece faaf|ecc2 acec|BAGB A2:|!
ed|ceAe ceAc|BEE2 BcdB|BAAG Acec|BEE2 BcdB|!
AceA cedc|B2BA BcdB|ABce faaf|ecc2 d2|]!

